storage/app/icons/phosphoricons/fill/factory-fill.svg

<svg xmlns="http://www.w3.org/2000/svg" fill="currentColor" viewBox="0 0 256 256"><path d="M232 208h-8v-72.98a1 1 0 0 0 0-.15L209 29.74A16.08 16.08 0 0 0 193.06 16h-18.12a16.08 16.08 0 0 0-15.84 13.74l-11.56 80.91L108.8 81.6A8 8 0 0 0 96 88v32L44.8 81.6A8 8 0 0 0 32 88v120h-8a8 8 0 0 0 0 16h208a8 8 0 0 0 0-16m-124-24H80a8 8 0 0 1 0-16h28a8 8 0 0 1 0 16m68 0h-28a8 8 0 0 1 0-16h28a8 8 0 0 1 0 16m-5.33-56-8.53-6.4 12.8-89.6h18.12l13.72 96Z"/></svg>

<svg xmlns="http://www.w3.org/2000/svg" viewBox="0 0 256 256" fill="currentColor"><path d="M232,208h-8V136c0-.05,0-.09,0-.14s0-.29,0-.43,0-.28,0-.41a.76.76,0,0,0,0-.15l-15-105.13A16.08,16.08,0,0,0,193.06,16H174.94A16.08,16.08,0,0,0,159.1,29.74l-11.56,80.91L108.8,81.6A8,8,0,0,0,96,88v32L44.8,81.6A8,8,0,0,0,32,88V208H24a8,8,0,0,0,0,16H232a8,8,0,0,0,0-16ZM108,184H80a8,8,0,0,1,0-16h28a8,8,0,0,1,0,16Zm68,0H148a8,8,0,0,1,0-16h28a8,8,0,0,1,0,16Zm-5.33-56-8.53-6.4L174.94,32h18.12l13.72,96Z"/></svg>
